Papirus/64x64/mimetypes/text-x-vsrc.svg

<?xml version="1.0" encoding="UTF-8" standalone="no"?>
<svg
   id="_图层_1"
   data-name="图层_1"
   version="1.1"
   viewBox="0 0 128 128"
   width="64"
   height="64"
   sodipodi:docname="text-x-vsrc.svg"
   xml:space="preserve"
   inkscape:version="1.4 (e7c3feb100, 2024-10-09)"
   xmlns:inkscape="http://www.inkscape.org/namespaces/inkscape"
   xmlns:sodipodi="http://sodipodi.sourceforge.net/DTD/sodipodi-0.dtd"
   xmlns="http://www.w3.org/2000/svg"
   xmlns:svg="http://www.w3.org/2000/svg"><sodipodi:namedview
     id="namedview3"
     pagecolor="#505050"
     bordercolor="#eeeeee"
     borderopacity="1"
     inkscape:showpageshadow="0"
     inkscape:pageopacity="0"
     inkscape:pagecheckerboard="0"
     inkscape:deskcolor="#505050"
     inkscape:zoom="10.6875"
     inkscape:cx="32"
     inkscape:cy="33.684211"
     inkscape:window-width="1920"
     inkscape:window-height="939"
     inkscape:window-x="0"
     inkscape:window-y="34"
     inkscape:window-maximized="1"
     inkscape:current-layer="_图层_1" /><!-- Generator: Adobe Illustrator 29.0.1, SVG Export Plug-In . SVG Version: 2.1.0 Build 192)  --><defs
     id="defs1"><style
       id="style1">
      .st0 {
        fill: #0071e9;
      }

      .st1 {
        fill: #fff;
      }

      .st2 {
        fill: #5aaaff;
        isolation: isolate;
        opacity: .5;
      }
    </style></defs><path
     class="st0"
     d="M18.2,0c-5.6,0-10.2,4.6-10.2,10.2v107.6c0,5.6,4.6,10.2,10.2,10.2h91.6c5.6,0,10.2-4.6,10.2-10.2V40.6L82.2,0H18.2Z"
     id="path1"
     style="fill:#4f4f4f;fill-opacity:1" /><path
     class="st2"
     d="m 82.761404,2.619883 v 29.2 c 0,3.2 2.145542,11.6 11.89801,11.6 h 24.966316 z"
     id="path2"
     style="fill:#3f3f3f;fill-opacity:1;stroke-width:0.987546" /><path
     class="st2"
     d="M 82.116964,0.02339171 V 29.223392 c 0,3.2 2.2,11.6 12.2,11.6 h 25.599996 z"
     id="path2-3"
     style="opacity:1;isolation:isolate;fill:#696969;fill-opacity:1" /><g
     id="g7"
     transform="matrix(2.5358852,0,0,2.2790602,-17.148326,-8.8764748)"><path
       style="fill:#fafafa"
       d="m 34.265,28.332 c -0.251,0.089 -0.858,0.33 -1.493,0.763 -0.227,0.152 -0.939,0.66 -1.585,1.439 -0.203,0.243 -0.397,0.501 -0.579,0.778 -0.026,0.043 -0.074,0.067 -0.124,0.062 -1.256,-0.169 -2.399,-0.257 -3.431,-0.263 -0.344,-0.002 -0.677,0.004 -0.996,0.02 -0.651,0.033 -1.221,0.102 -1.765,0.207 -0.55,0.106 -1.032,0.247 -1.468,0.423 -0.132,0.057 -0.237,0.026 -0.31,0.007 -0.073,-0.019 -0.136,-0.108 -0.201,-0.159 -0.153,-0.221 -0.307,-0.429 -0.845,-1.108 -0.537,-0.68 -1.471,-1.352 -2.357,-1.639 -0.559,-0.181 -1.005,-0.179 -1.284,-0.155 -1.208,0.102 -2.032,0.901 -2.453,1.432 v 0.001 10e-4 c 0,0 -1.359,1.391 -1.374,3.859 -0.015,2.468 0.672,2.987 1.007,3.602 0.137,0.251 0.114,0.502 0.076,0.628 v 0.002 l -10e-4,0.006 c -0.177,0.641 -0.303,1.273 -0.384,1.899 v 0.002 c -0.12,0.938 -0.14,1.863 -0.078,2.779 0.049,0.923 0.223,1.83 0.405,2.734 v 0.002 c 0.539,2.42 1.503,4.832 2.492,7.357 0.225,0.574 0.498,1.355 0.483,2.189 -0.01,0.652 -0.212,1.29 -0.514,1.866 v 0.002 c -0.585,1.12 -1.705,1.976 -3.234,2.467 0,0 -0.106,0.035 -0.174,0.114 C 13.999,59.742 14,60 14,60 h 30 v -4 c 0,-3.97 -0.293,-7.693 -0.992,-10.86 -0.241,-1.095 -0.365,-2.277 -0.749,-3.497 -0.892,-2.837 -0.2,-5.841 -0.92,-8.899 -0.032,-0.139 -0.208,-0.865 -0.536,-1.57 -0.34,-0.729 -0.761,-1.298 -1.211,-1.748 -0.397,-0.439 -0.911,-0.7 -1.417,-0.982 C 37.938,28.333 37.198,28 36.221,28 c -0.79,0 -1.523,0.182 -1.956,0.332 z"
       id="path6" /><path
       style="fill:#cccccc"
       d="m 36.707,47 c -0.707,0 -0.97,0.894 -1.491,1.288 -2.701,2.757 -6.276,4.74 -10.15,5.192 -1.52,0.186 -3.252,0.016 -4.706,-0.432 -0.677,-0.203 -1.444,0.32 -1.351,1.054 0.137,1.093 1.642,5.042 1.991,5.898 h 18 c 0,0 0.076,-8.398 -1,-12 0,0 -0.5,-1 -1.293,-1 z"
       id="path7" /><path
       d="m 29.688,40.92 a 0.664,0.699 49.6 0 0 -0.213,0.059 c -1.209,0.53 -2.177,1.381 -2.901,2.558 -0.784,1.268 -0.444,2.041 1.018,2.318 2.429,0.463 5.473,-3.078 2.512,-4.843 A 0.664,0.699 49.6 0 0 29.688,40.92 Z M 17.537,41 a 2.551,0.861 77.78 0 0 -0.103,0.014 2.551,0.861 77.78 0 0 -0.258,2.746 2.551,0.861 77.78 0 0 1.39,2.226 A 2.551,0.861 77.78 0 0 18.824,43.24 2.551,0.861 77.78 0 0 17.537,41 Z m 3.461,8.139 c -0.436,0.002 -0.873,0.067 -1.314,0.197 a 0.554,0.567 86.5 0 0 -0.409,0.449 c -0.45,2.622 3.142,2.63 4.063,0.354 A 0.374,0.374 0 0 0 23.156,49.66 c -0.712,-0.352 -1.431,-0.525 -2.158,-0.521 z"
       id="path8" /></g></svg>

<svg xmlns="http://www.w3.org/2000/svg" width="64" height="64" version="1.1">
 <path style="opacity:0.2" d="m12.75 5c-1.5235 0-2.75 1.2488-2.75 2.8v50.4c0 1.55008 1.2265 2.8 2.75 2.8h38.5c1.5224 0 2.75-1.24992 2.75-2.8v-35.2l-14-4-4-14z"/>
 <path style="fill:#4f4f4f" d="m12.75 4c-1.5235 0-2.75 1.2488-2.75 2.8v50.4c0 1.55008 1.2265 2.8 2.75 2.8h38.5c1.5224 0 2.75-1.24992 2.75-2.8v-35.2l-14-4-4-14z"/>
 <path style="fill:#ffffff;opacity:0.1" d="M 12.75,4 C 11.2265,4 10,5.249581 10,6.800781 V 7.800782 C 10,6.249581 11.2265,5 12.75,5 H 36 V 4 Z"/>
 <path style="opacity:0.2" d="m54 23-18-18v15.1875c0 1.55925 1.2555 2.8125 2.8125 2.8125z"/>
 <path style="fill:#696969" d="m54 22-18-18v15.1875c0 1.55925 1.2555 2.8125 2.8125 2.8125z"/>
 <path style="fill:#fafafa" d="M 34.265,28.332 C 34.014,28.421 33.407,28.662 32.772,29.095 32.545,29.247 31.833,29.755 31.187,30.534 30.984,30.777 30.79,31.035 30.608,31.312 30.582,31.355 30.534,31.379 30.484,31.374 29.228,31.205 28.085,31.117 27.053,31.111 26.709,31.109 26.376,31.115 26.057,31.131 25.406,31.164 24.836,31.233 24.292,31.338 23.742,31.444 23.26,31.585 22.824,31.761 22.692,31.818 22.587,31.787 22.514,31.768 22.441,31.749 22.378,31.66 22.313,31.609 22.16,31.388 22.006,31.18 21.468,30.501 20.931,29.821 19.997,29.149 19.111,28.862 18.552,28.681 18.106,28.683 17.827,28.707 16.619,28.809 15.795,29.608 15.374,30.139 V 30.14 30.141 C 15.374,30.141 14.015,31.532 14,34 13.985,36.468 14.672,36.987 15.007,37.602 15.144,37.853 15.121,38.104 15.083,38.23 V 38.232 L 15.082,38.238 C 14.905,38.879 14.779,39.511 14.698,40.137 V 40.139 C 14.578,41.077 14.558,42.002 14.62,42.918 14.669,43.841 14.843,44.748 15.025,45.652 V 45.654 C 15.564,48.074 16.528,50.486 17.517,53.011 17.742,53.585 18.015,54.366 18,55.2 17.99,55.852 17.788,56.49 17.486,57.066 V 57.068 C 16.901,58.188 15.781,59.044 14.252,59.535 14.252,59.535 14.146,59.57 14.078,59.649 13.999,59.742 14,60 14,60 H 44 V 56 C 44,52.03 43.707,48.307 43.008,45.14 42.767,44.045 42.643,42.863 42.259,41.643 41.367,38.806 42.059,35.802 41.339,32.744 41.307,32.605 41.131,31.879 40.803,31.174 40.463,30.445 40.042,29.876 39.592,29.426 39.195,28.987 38.681,28.726 38.175,28.444 37.938,28.333 37.198,28 36.221,28 35.431,28 34.698,28.182 34.265,28.332 Z"/>
 <path style="fill:#cccccc" d="M 36.707,47 C 36,47 35.737,47.894 35.216,48.288 32.515,51.045 28.94,53.028 25.066,53.48 23.546,53.666 21.814,53.496 20.36,53.048 19.683,52.845 18.916,53.368 19.009,54.102 19.146,55.195 20.651,59.144 21,60 H 39 C 39,60 39.076,51.602 38,48 38,48 37.5,47 36.707,47 Z"/>
 <path d="M 29.688 40.92 A 0.664 0.699 49.6 0 0 29.475 40.979 C 28.266 41.509 27.298 42.36 26.574 43.537 C 25.79 44.805 26.13 45.578 27.592 45.855 C 30.021 46.318 33.065 42.777 30.104 41.012 A 0.664 0.699 49.6 0 0 29.688 40.92 z M 17.537 41 A 2.551 0.861 77.78 0 0 17.434 41.014 A 2.551 0.861 77.78 0 0 17.176 43.76 A 2.551 0.861 77.78 0 0 18.566 45.986 A 2.551 0.861 77.78 0 0 18.824 43.24 A 2.551 0.861 77.78 0 0 17.537 41 z M 20.998 49.139 C 20.562 49.141 20.125 49.206 19.684 49.336 A 0.554 0.567 86.5 0 0 19.275 49.785 C 18.825 52.407 22.417 52.415 23.338 50.139 A 0.374 0.374 0 0 0 23.156 49.66 C 22.444 49.308 21.725 49.135 20.998 49.139 z"/>
</svg>
